X: 14
M:6/8
L:1/8
K:G
dc|B2 G GBG|gfe d2 c|B2 G GAB|c2 B ABc|
e2 f gfe|d2 c B2 d|e2 d c2 B|A3 d3|
e2 f gfe|d2 g d2 c|B2 G AFA|G3 G2||

